X: 1303
T: Kürdîlihicazkâr Seyir
C: Erol Bingöl
O: Turkey
F: http://compmusic.upf.edu/node/140
N: kurdilihicazkar--seyir--devrihindi--1--erol_bingol
N: makam= kurdilihicazkar
N: form= seyir
N: usul= devrihindi = 7/4
M: 7/4
L: 1/16
K: C _B _e _A 
Q: 1/4=120
%%MIDI tuningsystem comma53
^f2 g2 g2 fg _7/8a_1/4b g4  | ^fg _7/8a2 gf fe ed d4  | \
w:   |   | 
c2 d2 _7/8e2 ^f2 g2 =ab ag  | 
w:   | 
c'2 b2 b=a ag g^f g4  | c2 g2 g2 fa gf ed e2  | \
w:   |   | 
de f2 ed dc cB c4  | 
w:   | 
B2 c2 d2 e2 dc d2 cB  | Bc de dc BA AG G4  | |


